!!!COM: Palestrina, Giovanni Perluigi da
!!!OPR: Dum esset summus pontifex
!!!OTL: Credo
**kern	**kern	**kern	**kern
*Ibass	*Itenor	*Icalto	*Icant
!Bassus	!Tenor	!Altus	!Cantus
*clefF4	*clefGv2	*clefG2	*clefG2
*k[]	*k[]	*k[]	*k[]
*A:aeo	*A:aeo	*A:aeo	*A:aeo
*M4/2	*M4/2	*M4/2	*M4/2
=1	=1	=1	=1
1r	1e	1r	1r
1A	2A	1c	1a
.	2e	.	.
=2	=2	=2	=2
2D	2f	2d	1a
2A	1e	1c	.
2c	.	.	1g
2B	[2d	2d	.
=3	=3	=3	=3
1A	4d]	1e	1cc
.	4c	.	.
.	1c	.	.
1G	.	1g	1dd
.	2B	.	.
=4	=4	=4	=4
2r	1c	1e	1cc
2c	.	.	.
2c	1G	2r	1dd
2B	.	2g	.
=5	=5	=5	=5
2.c	2r	2g	1ee
.	2c	2e	.
4B	.	.	.
2A	2c	2f	1r
2G	2B	2g	.
=6	=6	=6	=6
1F	2c	1a	0r
.	2d	.	.
1G	2e	1g	.
.	[2d	.	.
=7	=7	=7	=7
1A	2d]	1e	1r
.	2c	.	.
2.D	2.f	2.a	2.dd
4D	4f	4a	4dd
=8	=8	=8	=8
2D	2d	2a	2ff
2C#	2e	2a	2ee
1D	1f	1a	1dd
=9	=9	=9	=9
2A	2e	2a	2cc#
2A	2e	2a	2cc#
1G	2g	1b-	1dd
.	[2g	.	.
=10	=10	=10	=10
2c	2g]	2cc	2ee
2c	2e	2g	2ee
1F	1f	2a	2cc
.	.	2a	2cc
=11	=11	=11	=11
1G	2d	2.g	2.b
.	1d	.	.
.	.	4f	4b
2A	.	2e	1a
2A	2c#	2e	.
=12	=12	=12	=12
0D	2d	2f#	2r
.	1f#	1a	1dd
.	2f#	2a	2dd
=13	=13	=13	=13
0r	2g	2b	2dd
.	2e	2g	2ee
.	2f#	2a	2dd
.	2g	2b	2dd
=14	=14	=14	=14
1A	4a	4cc	1cc
.	4g	4b	.
.	4f	4a	.
.	4e	4g	.
1B-	2d	2f	2dd
.	[2g	2d	2dd
=15	=15	=15	=15
0c	2g]	2e	0cc
.	2a	2.f	.
.	1g	.	.
.	.	8e	.
.	.	8d	.
.	.	2e	.
=16	=16	=16	=16
0F	0a	2f	1cc
.	.	2.f	.
.	.	.	2r
.	.	4f	.
.	.	2f	[2cc
=17	=17	=17	=17
0r	0r	2e	4cc]
.	.	.	4cc
.	.	2f	2cc
.	.	2g	2b
.	.	[2f	2cc
=18	=18	=18	=18
0r	1r	2f]	2dd
.	.	4e	1cc
.	.	4d	.
.	2.A	2e	.
.	.	[2a	4b
.	4A	.	4a
=19	=19	=19	=19
1r	2e	2a]	2b
.	2e	2g#	2.ee
2.D	1f	[1a	.
.	.	.	4dd
.	.	.	[2dd
4D	.	.	.
=20	=20	=20	=20
2A	2e	1a]	2dd]
2A	1a	.	2cc#
1B-	.	1r	1dd
.	2g	.	.
=21	=21	=21	=21
2A	1a	1r	0r
1d	.	.	.
.	2d	[1a	.
2c#	2e	.	.
=22	=22	=22	=22
1d	1f	2a]	2r
.	.	2a	1dd
2G	1e	2b-	.
2A	.	4a	2cc#
.	.	4g	.
=23	=23	=23	=23
1.B-	2.d	1f	1dd
.	4c	.	.
.	4d	2d	2g
.	4e	.	.
2A	[2f	2c	2a
=24	=24	=24	=24
1G	2f]	2g	2b-
.	2e	2g	2b-
1F	1f	1c	[1a
=25	=25	=25	=25
2r	2r	2r	1a]
2F	2a	2A	.
2E	2g	2B	1r
2E	2g	2c	.
=26	=26	=26	=26
1D	1f	1d	1r
2A	2e	1c	2r
2A	2a	.	2cc
=27	=27	=27	=27
2B	2g	2r	2dd
2c	2g	1cc	2ee
2d	2f	.	2ff
2d	2f	2b	2ff
=28	=28	=28	=28
2c	1g	1cc	2ee
1c	.	.	1ee
.	2c	[1g	.
2B	2d	.	2dd
=29	=29	=29	=29
1c	1e	1g]	1cc
2G	2d	1g	2b
2E	2e	.	2cc
=30	=30	=30	=30
2G	2d	2g	2b
2A	2c	2e	1a
1E	1B	1e	.
.	.	.	2g#
=31	=31	=31	=31
2A	1A	0e	1a
1A	.	.	.
.	2r	.	1r
2G	[2e	.	.
=32	=32	=32	=32
2A	2e]	0r	0r
2B	2d	.	.
2c	2e	.	.
2A	2f	.	.
=33	=33	=33	=33
2B	2g	0r	0r
2c	2e	.	.
2d	2f	.	.
2B	2g	.	.
=34	=34	=34	=34
2c	2a	0r	0r
2d	2f	.	.
2e	2g	.	.
[2d	2f	.	.
=35	=35	=35	=35
2d]	1e	1r	1r
2c#	.	.	.
2d	2d	2r	2r
[2d	[2f	[2a	[2dd
=36	=36	=36	=36
2d]	2f]	2a]	2dd]
2d	2f	2a	2ff
2c	2g	2cc	2ee
2G	2g	2b	2dd
=37	=37	=37	=37
1A	1e	1a	2cc
.	.	.	1cc
2F	2f	2a	.
2G	2d	2g	2b
=38	=38	=38	=38
1C	2.e	2g	1cc
.	.	2c	.
.	8d	.	.
.	8c	.	.
1G	1B	2d	2r
.	.	2e	2g
=39	=39	=39	=39
0r	0r	2f	2a
.	.	4e	2b
.	.	4d	.
.	.	4c	1cc
.	.	4d	.
.	.	4e	.
.	.	4f	.
=40	=40	=40	=40
0r	2r	2g	2b
.	2c	1a	2a
.	2d	.	1b
.	2e	2g#	.
=41	=41	=41	=41
2r	1f	1a	2r
2F	.	.	2a
2G	1e	2r	2b
2A	.	2a	2cc
=42	=42	=42	=42
1B-	1d	2f	1dd
.	.	2g	.
2A	4e	2a	2cc
.	4f#	.	.
2G	[2g	4d	2b
.	.	4d	.
=43	=43	=43	=43
1A	2g]	1c	1cc
.	2f#	.	.
1G	2g	2d	1b
.	2d	2g	.
=44	=44	=44	=44
2r	4e	4g	2r
.	4d	4f	.
2c	4c	4e	2ee
.	4B	4d	.
4c	1A	1c	4ee
4B	.	.	4dd
4A	.	.	4cc
4G	.	.	4b
=45	=45	=45	=45
2F	2A	2c	2a
2E	4B	2e	2g
.	4c	.	.
1D	4d	[1a	1f
.	4A	.	.
.	[2d	.	.
=46	=46	=46	=46
1A	2d]	1a]	1e
.	2c#	.	.
2D	2.d	1f#	1d
2d	.	.	.
.	8c	.	.
.	8B-	.	.
=47	=47	=47	=47
2c	1A	2r	0r
2A	.	2a	.
1c	1r	2g	.
.	.	2e	.
=48	=48	=48	=48
1B	0r	2g	2r
.	.	2g	2dd
[1A	.	2.a	2cc
.	.	.	2a
.	.	8g	.
.	.	8f	.
=49	=49	=49	=49
1A]	2r	0e	1cc
.	2a	.	.
1r	2g	.	1b
.	2e	.	.
=50	=50	=50	=50
2.d	1f	1r	1a
4d	.	.	.
2c	[1e	2.a	1r
2A	.	.	.
.	.	4a	.
=51	=51	=51	=51
1c	1e]	2g	1r
.	.	2e	.
1B	1d	2g	2.dd
.	.	2g	.
.	.	.	4dd
=52	=52	=52	=52
0A	1r	0a	2cc
.	.	.	2a
.	2r	.	1cc
.	2c	.	.
=53	=53	=53	=53
1G	2d	0r	1b
.	2e	.	.
2F	2.f	.	[1a
2D	.	.	.
.	8e	.	.
.	8d	.	.
=54	=54	=54	=54
1F	2c	1r	1a]
.	1d	.	.
1E	.	1g	1r
.	2c#	.	.
=55	=55	=55	=55
1D	4d	2f	2r
.	4e	.	.
.	4f	2d	2dd
.	4g	.	.
2r	1a	1f	2cc
2d	.	.	2a
=56	=56	=56	=56
2c	2r	1e	2.cc
2A	2a	.	.
.	.	.	4dd
[1c	2g	1c	[1ee
.	2e	.	.
=57	=57	=57	=57
1c]	1g	1cc	1ee]
1d	1f	1a	1dd
=58	=58	=58	=58
0A	0e	0a	0cc#
=59	=59	=59	=59
1.D	1.f#	1.d	1.a
2D	2f#	2d	2a
=60	=60	=60	=60
1G	1g	1d	1b-
1A	1e	1c	1a
=61	=61	=61	=61
2.d	2r	2.f	2.a
.	1f	.	.
4d	.	4f	4a
1c	.	1g	2cc
.	2e	.	[2cc
=62	=62	=62	=62
1d	2d	1f	2cc]
.	1f	.	2b
1c	.	1g	[1cc
.	2e	.	.
=63	=63	=63	=63
1F	1f	1a	1cc]
1c	1e	1g	2r
.	.	.	2ee
=64	=64	=64	=64
2.G	2.g	2.b	2.dd
4G	4g	4b	4dd
2A	2e	2a	2cc
2A	2f	2a	2cc
=65	=65	=65	=65
1c	1e	1g	1cc
1F	2c	1f	1a
.	[2f	.	.
=66	=66	=66	=66
1c	2f]	1g	1cc
.	2e	.	.
2F	2.f	1a	1cc
[2F	.	.	.
.	8e	.	.
.	8d	.	.
=67	=67	=67	=67
2F]	2c	2f	2.a
2D	2d	2f	.
.	.	.	4a
2A	2d	2e	2a
2A	2c#	2e	2a
=68	=68	=68	=68
2D	2d	1d	1a
2d	2f	.	.
2c	2e	1g	1r
2c	2e	.	.
=69	=69	=69	=69
1B	1d	2g	2r
.	.	2g	2dd
1A	1e	2a	2cc
.	.	2a	2cc
=70	=70	=70	=70
2.E	2.e	2.g	2b
.	.	.	2b
4E	4e	4g	.
2F	2c	1f	2a
2D	[2f	.	4a
.	.	.	4b
=71	=71	=71	=71
1C	4f]	1g	1cc
.	8e	.	.
.	8d	.	.
.	2e	.	.
2r	2f	2f	2a
2F	2a	2f	2cc
=72	=72	=72	=72
4F	1a	1f	1cc
4G	.	.	.
4A	.	.	.
4B	.	.	.
2c	2g	2e	1cc
2A	2a	2f	.
=73	=73	=73	=73
1G	1d	2.g	2b
.	.	.	1dd
.	.	4f	.
1A	2.a	1e	.
.	.	.	2cc#
.	4g	.	.
=74	=74	=74	=74
0D	4f	2d	1dd
.	4e	.	.
.	4d	1a	.
.	4c	.	.
.	2.d	.	2r
.	.	2b	2dd
.	8c	.	.
.	8B	.	.
=75	=75	=75	=75
0r	1A	2cc	2ee
.	.	2a	2ff
.	1r	2b	2dd
.	.	4cc	2ee
.	.	4b	.
=76	=76	=76	=76
0r	1d	4a	4ff
.	.	4g	4ee
.	.	2f	4dd
.	.	.	4cc
.	2e	2g	2b
.	2f	[2a	2a
=77	=77	=77	=77
1r	2d	2a]	1b
.	2e	2g#	.
2r	4f	2a	1a
.	4e	.	.
2D	4d	2f	.
.	4c	.	.
=78	=78	=78	=78
2E	2B	2g	0r
2F	2A	2a	.
2D	1B	2f	.
2E	.	2g	.
=79	=79	=79	=79
4F	2A	1a	2r
4G	.	.	.
4A	2a	.	2ff
4B	.	.	.
2c	2g	2r	2ee
[2F	2a	2f	2cc
=80	=80	=80	=80
2F]	2f	2a	2dd
2E	2g	2g	2ee
2D	2.a	2f	2ff
2A	.	2c	[2ee
.	4g	.	.
=81	=81	=81	=81
1D	1f	1d	4ee]
.	.	.	4dd
.	.	.	1dd
1r	1e	2r	.
.	.	2g	2cc#
=82	=82	=82	=82
2r	1d	2.f	2dd
2B-	.	.	2dd
.	.	4d	.
2.A	1r	2e	2.cc
.	.	2f	.
4F	.	.	4a
=83	=83	=83	=83
2G	1r	2d	2b-
2E	.	2e	2g
2F	2r	[1d	2a
2G	2g	.	2b-
=84	=84	=84	=84
2D	2.f	1d]	2a
2B-	.	.	2dd
.	4d	.	.
2.A	2e	1r	2.cc
.	2f	.	.
4F	.	.	4a
=85	=85	=85	=85
2G	2d	1r	2b-
2E	2e	.	2g
2F	[1d	2r	2a
2G	.	2g	2b-
=86	=86	=86	=86
1D	2d]	2.f	2a
.	2d	.	2f
.	.	4d	.
1r	2c	2e	2g
.	2A	2f	2a
=87	=87	=87	=87
2r	2B-	2d	2f
1d	2B-	2d	2g
.	1A	1e	1a
2c#	.	.	.
=88	=88	=88	=88
1d	2r	1f#	1a
.	1d	.	.
1G	.	1g	1b
.	[2e	.	.
=89	=89	=89	=89
1A	2e]	1r	1cc
.	2f	.	.
1B-	2d	1f	2dd
.	2d	.	2ff
=90	=90	=90	=90
1G	2.g	2b-	2ee
.	.	2b-	1dd
.	4f	.	.
1A	1e	2.a	.
.	.	.	2cc#
.	.	4g	.
=91	=91	=91	=91
1D	2d	1f	1dd
.	1d	.	.
2.A	.	1e	1r
.	2c	.	.
4A	.	.	.
=92	=92	=92	=92
2B	2d	0r	0r
2c	2e	.	.
1d	2f	.	.
.	[2a	.	.
=93	=93	=93	=93
2.c	2a]	2r	0r
.	2g	2e	.
4B	.	.	.
2A	2f	2f	.
2G	2e	2g	.
=94	=94	=94	=94
1F	1f	2.a	2r
.	.	.	2a
.	.	8g	.
.	.	8f	.
1r	2r	2g	2b
.	2A	[2a	2cc
=95	=95	=95	=95
0r	2B	4a]	2dd
.	.	4g	.
.	4c	4g	1ee
.	4c	8f	.
.	.	8e	.
.	1d	1f	.
.	.	.	2dd
=96	=96	=96	=96
1.A	2c	2e	2ee
.	1e	1a	1cc#
2d	2f	2a	2dd
=97	=97	=97	=97
2c	2g	2cc	2.ee
2A	2a	2cc	.
.	.	.	4ee
2c	2.g	2cc	2ee
2G	.	2b	2dd
.	4f	.	.
=98	=98	=98	=98
2A	2e	2a	1cc
1F	1f	1a	.
.	.	.	1cc
2C	2e	2g	.
=99	=99	=99	=99
1D	2.d	1f	2b
.	.	.	1a
.	4c	.	.
1E	1B	[1e	.
.	.	.	2g#
=100	=100	=100	=100
0A	2A	1e]	2a
.	1c#	.	1ee
.	.	2r	.
.	2c#	[2a	2ee
=101	=101	=101	=101
0r	1d	2a]	1ff
.	.	2a	.
.	2A	1cc	2ee
.	2c	.	2ee
=102	=102	=102	=102
0r	2G	2b	2dd
.	2A	2a	2cc
.	1e	2g#	1b
.	.	2g#	.
=103	=103	=103	=103
1.F	2r	2a	1.cc
.	1f	1a	.
2F	2f	2a	2cc
=104	=104	=104	=104
2F	2a	2f	2cc
2E	2g	2g	2cc
[1D	2.f	[1a	2.dd
.	4e	.	4ee
=105	=105	=105	=105
1D]	1d	1a]	1ff
2A	2c	2a	2ee
2A	2e	2a	2cc
=106	=106	=106	=106
2F	2f	2a	2cc
2F	2f	2a	2cc
2F	2a	2f	2cc
2E	2g	2g	2cc
=107	=107	=107	=107
0D	2.f	0a	2.dd
.	4e	.	4ee
.	1d	.	1ff
=108	=108	=108	=108
0A	1c#	1a	0ee
.	2.c#	2.e	.
.	4d	4f	.
=109	=109	=109	=109
0r	2e	2g	2.cc
.	2f	2a	.
.	.	.	4dd
.	2c	2e	2ee
.	[2f	[2a	2ff
=110	=110	=110	=110
2.F	4f]	2a]	2cc
.	4e	.	.
.	2d	2a	2.ff
4G	.	.	.
2A	2c	2.f	.
.	.	.	4ee
2B-	[2f	.	2dd
.	.	4g	.
=111	=111	=111	=111
1F	4f]	1a	2cc
.	4e	.	.
.	4d	.	1dd
.	4c	.	.
2G	2B	4g	.
.	.	4f	.
2A	2c	4e	[2cc
.	.	4f#	.
=112	=112	=112	=112
1G	1d	1g	2cc]
.	.	.	2b
1C	1e	2r	2cc
.	.	2g	2ee
=113	=113	=113	=113
0r	0r	2a	2ff
.	.	2b	2dd
.	.	1cc	1ee
=114	=114	=114	=114
0r	0r	2b	2dd
.	.	2g	2ee
.	.	2a	2cc
.	.	2f	2dd
=115	=115	=115	=115
1c	2r	1e	1ee
.	2e	.	.
2A	2f	1r	1r
2B	2d	.	.
=116	=116	=116	=116
2.c	2.e	0r	1r
4c	4e	.	.
2B	2d	.	2r
2G	2e	.	2ee
=117	=117	=117	=117
2A	2c	2r	2ee
2F	2d	2a	2dd
1E	1e	2a	2cc
.	.	2g	2b
=118	=118	=118	=118
1A	2r	2f	2cc
.	1a	2e	2ee
1r	.	2f	4dd
.	.	.	4cc
.	2g	2e	[2cc
=119	=119	=119	=119
1r	2f	1d	2cc]
.	2f	.	2b
2r	2.e	1c	1cc
[2A	.	.	.
.	4d	.	.
=120	=120	=120	=120
2A]	2c	1r	1.ee
2G	2B	.	.
2F	1A	[1a	.
2F	.	.	2dd
=121	=121	=121	=121
2E	1e	2a]	2cc
2E	.	2g	2b
2F	1c	2f	2a
2C	.	2e	2g
=122	=122	=122	=122
1D	1A	2d	2f
.	.	2d	2f
1A	2r	2d	1e
.	[2a	2c	.
=123	=123	=123	=123
2r	2a]	1B	1d
1d	2g	.	.
.	2f	1A	2r
2c	2e	.	[2a
=124	=124	=124	=124
1B	1d	2r	2a]
.	.	1d	2g#
1A	1e	.	2a
.	.	2c	2a
=125	=125	=125	=125
2.G	1g	2d	2.b
.	.	2d	.
4G	.	.	4b
2c	2g	2.e	2cc
2A	[2a	.	2cc
.	.	4e	.
=126	=126	=126	=126
1d	4a]	2f	2dd
.	4g	.	.
.	1f	2f	2a
1c	.	2g	[1cc
.	2e	2g	.
=127	=127	=127	=127
2F	2f	2a	2cc]
2F	2f	2a	2cc
1G	1d	1g	1b
=128	=128	=128	=128
1D	2d	2f	1a
.	2f	2a	.
1r	1f	1a	2r
.	.	.	2cc
=129	=129	=129	=129
0r	2e	2g	1cc
.	2f	2a	.
.	2g	2e	2b
.	2e	2g	2cc
=130	=130	=130	=130
0r	4d	4f	1.dd
.	4e	4e	.
.	4f	4d	.
.	4g	4e	.
.	2a	4f	.
.	.	4g	.
.	2A	[2a	2cc
=131	=131	=131	=131
1r	1e	2a]	2b
.	.	2g#	2b
1F	1r	2a	2a
.	.	2a	4f
.	.	.	4g
=132	=132	=132	=132
1F	1c	1f	4a
.	.	.	4b
.	.	.	4cc
.	.	.	4dd
2E	1c	2g	2ee
2F	.	4f	2a
.	.	4e	.
=133	=133	=133	=133
2G	2B	2d	2dd
2E	2c	2g	2ee
1D	[1d	1f	4ff
.	.	.	4ee
.	.	.	4dd
.	.	.	4cc
=134	=134	=134	=134
1D	2d]	1f	2b
.	2c	.	2a
1E	2B	2e	2a
.	2B	2e	2g#
=135	=135	=135	=135
2.F	1A	2c	2a
.	.	2f	2.cc
4G	.	.	.
1A	1c	1e	.
.	.	.	4dd
.	.	.	2ee
=136	=136	=136	=136
0D	2.d	0a	2.ff
.	4e	.	4ee
.	1f	.	1dd
=137	=137	=137	=137
0A	0e	0a	0cc#
==	==	==	==
*-	*-	*-	*-
!!!CDT: 1525/^1526/-1594/2/2
!!!OCY: Italia
!!!AGN: Mass (Paraphrase)
!!!AST: renaissance, vocal
!!!ASW: Antiphon
!!!PWK: Masses, Book 8
!!!RNB: Cadence finals: D
!!!YOR: Le Opere Complete, v. 24, p. 32
!!!YOO: Rome, Italy: Fratelli Scalera
!!!END: 1992//
!!!EED: John Miller
!!!YEC: Copyright 2000, John Miller
!!!YEN: United States of America
!!!YEM: Rights to all derivative electronic formats reserved.
!!!YEM: Refer to licensing agreement for further details.
!!!YEM: This file must be accompanied by the licensing agreement.
!!!YEM: A copy of the licensing agreement may be found at http://www.music-cog.ohio-state.edu/HumdrumDatabases/Palestrina/license.txt
!!!EMD: converted to Humdrum by Bret Aarden
